X: 1
P: Argyle Bowling Green
C: Athole Collection, arr. T. Traub 5-18-2000
L: 1/8
M: 4/4
R: Reel
K: C
|: E| "C"C2 c2 cded|"F"cdcA "G"GFED|"C"C2 c2 "Am"cded|"F"cBcE "G"D3 :|
A|"C"GEcE GEEA|"C"GEcE "G"G2 GA|"C"GEcE GEEF|"F"GAGE "G"D2 Da|
"C"gec'e geea|"C"gec'e "G"g2 ga|"C"gec'e geef|"F"gage "G"d2 d |]
